X:1
T:Singing in the Storm
T:Singing in the Storm
T:C. W. James
T:Jennie Wilson, 1904
T:Public Domain Courtesy of the Cyber Hymnal™
T:Public Domain Courtesy of the Cyber Hymnal™
C:C. W. James
Z:Public Domain
Z:Courtesy of the Cyber Hymnal™
%%score ( 1 2 ) ( 3 4 )
L:1/8
Q:1/4=88
M:6/8
K:Db
V:1 treble 
V:2 treble 
V:3 bass 
V:4 bass 
V:1
 [DF]/[DF]/ | [DF]2 [DF] [D=E]2 [DF] | [DG] [DF]4 [DE]/D/ | [B,D]2 [B,E] [B,D]2 [B,E] | %4
w: 1.~O- ver-|head dark clouds had|ga- thered, Hid- ing|all the depths of|
w: 2.~Safe- ly|shel- tered from the|tem- pest, In its|nest be- side the|
w: 3.~To my|heart I took the|les- son Taught me|by that bird so|
w: 4.~When deep|clouds of sor- row|ga- ther, E’en a-|mid the shades of|
 ([A,F-]3 [DF]2) [FA]/[FA]/ | [FA]2 [FA] [=E=G]2 [FA] | [GB] [FA]4 [FA]/[FA]/ | %7
w: blue; * And the|land- scape was o’er-|sha- dowed By their|
w: wall, * Sat a|lit- tle brown wren|sing- ing, Fear- ing|
w: frail, * And I|said, I have a|re- fuge When the|
w: death, * Rest- ing|in div- ine pro-|tect- ion, I may|
 [FB]2 [DF] [A,E]2 [B,D] | [CA]3- [CA]2 [AB]/[AB]/ | [Fd]2 [Fd] [Ac]2 [GB] | %10
w: drea- ry lead- en|hue; * E- choed|loud the peal- ing|
w: not what might be-|fall; * While the|rain was fast des-|
w: storms of life as-|sail; * Trust- ing|in the heav’n- ly|
w: have the light of|faith; * Well I|know my lov- ing|
 [GB] [FA]4 [FA]/[FA]/ | [Fd]2 [Gc] [Ad]2 [Ae] | [Af]3- [Af]2 [Af]/[Af]/ | [Af]2 [Af] [=Af]2 [Fe] | %14
w: thun- der, Round my|cot- tage bright and|warm; * Then a|bird voice near the|
w: cend- ing, Ve- ry|close its ti- ny|form * ’Neath the|eaves the wee bird|
w: Fa- ther, Shel- tered|’neath His might- y|arm, * When the|tem- pest wild is|
w: Fa- ther, Bane to|bless- ing will trans-|form, * And con-|fid- ing in His|
 [Fe] [Fd]4 [Ad]/[Ad]/ | ([Ac]<[GB])[FA] [DF]2 [CE] | D6 || %17
w: win- dow Rang out|sweet- * ly in the|storm.|
w: nest- led, Sing- ing|sweet- * ly in the|storm.|
w: beat- ing, O, my|soul, * sing in the|storm.|
w: good- ness, I will|sing * a- mid the|storm.|
[M:4/4][Q:1/4=80]"^Refrain" [FA]<[FA-] E>E A4 z2 | [FA]<[FA] [GB]>[GB] ([FA]2 d>d) | %19
w: ||
w: ||
w: ~~Sing- ing in the *|sing- ing in the storm, * *|
w: ||
 z2 [Fd][DF] [A,E][B,D] x2 | ([CE]6 F>A) | z2 [Ad][Ac] [Ad][Ae] x2 | %22
w: |||
w: |||
w: Sing- ing soft- ly|in * *|storm, ~ To a|
w: |||
 [Af]/ ([Af-]3/2=A>A B/ f4) [_Ad]>[Ad] | [Ac]>[GB] A2 [DF]2 E2 | D6 x2 |] %25
w: |||
w: |||
w: clear bird * * * * voice I|list- ened, Sing- ing sweet-|ly|
w: |||
V:2
 x | x6 | x11/2 D/ | x6 | x6 | x6 | x6 | x6 | x6 | x6 | x6 | x6 | x6 | x6 | x6 | x6 | D6 || %17
w: |||||||||||||||||
w: |||||||||||||||||
w: |||||||||||||||||
[M:4/4] x4 F2 x4 | x8 | d4- A>G x2 | x8 | d4- F>G x2 | x9/2 B3/2 x9/2 | x2 F>F x/ (DC) x3/2 | %24
w: |||||||
w: |||||||
w: storm|||||||
 D>_C B,>B, A,4 |] %25
w: |
w: |
w: |
V:3
 [D,A,]/[D,A,]/ | [D,A,]2 [D,A,] [D,=G,]2 [D,A,] | [D,B,] [D,A,]4 [D,G,]/[D,F,]/ | %3
 [G,,G,]2 [G,,G,] [G,,G,]2 [G,,G,] | ([D,-F,]3 [D,A,]2) [D,D]/[D,D]/ | [D,D]2 [D,D] [D,D]2 [D,D] | %6
 [D,D] [D,D]4 [D,D]/[D,D]/ | [D,D]2 [D,A,] [C,A,]2 [B,,=G,] | [A,,A,]3- [A,,A,]2 [C,A,]/[C,A,]/ | %9
 [D,A,]2 [D,A,] [D,D]2 [D,D] | [D,D] [D,D]4 [D,D]/[D,D]/ | [D,A,]2 [E,A,] [F,A,]2 [A,C] | %12
 D3- D2 D/D/ | D2 D [D,B,]2 [F,A,] | [B,D] [B,D]4 [D,D]/[D,D]/ | [G,D]2 [A,D] A,2 [A,,G,] | %16
 [D,F,]6 ||[M:4/4] [D,D]<[D,D] [A,,C]>[A,,C] ([D,D]2 F,E,) x2 | %18
 [D,D]<[D,D] [G,,D]>[G,,D] [D,D]2 z2 | z2 [F,A,]>[E,A,] [D,A,][D,A,][C,A,][B,,=G,] | %20
 ([A,,A,]2 [A,,A,]>[A,,A,] [A,,A,]2) z2 | z2 [D,A,]>[E,A,] [F,A,]G,[F,D][E,C] | %22
 [D,D]<[D,D] [F,C]>[F,C] [B,D]<[B,D] [F,D]>[F,D] x5/2 | D>D D>D A,2 (A,G,) | F,>A, G,>G, F,4 |] %25
V:4
 x | x6 | x6 | x6 | x6 | x6 | x6 | x6 | x6 | x6 | x6 | x6 | D3- D2 D/D/ | D2 D x3 | x6 | x3 A,2 x | %16
 x6 ||[M:4/4] x10 | x8 | x8 | x8 | x8 | x21/2 | G,2 F,2 A,2 A,,2 | D,6 x2 |] %25

